assets/objets/marteau.svg

<svg xmlns="http://www.w3.org/2000/svg" viewBox="0 0 44 30.92">
  <g stroke="#000">
    <path fill="#a05a2c" stroke-width=".2" d="M40.28 26.94 1.78 4.71c-.1-.04-.2-.08-.3-.14C.23 3.85-.26 2.34.4 1.21 1.04.09 2.59-.24 3.84.48l.23.15 38.55 22.25Z"/>
    <path stroke-width=".23" d="m43.74 20.07-.04-.03-6.19 10.72-6.48-3.74 6.23-10.78-.01-.01.01-.01.03-.03.02.01.2-.1a7.34 7.34 0 0 0 3.62-1.57 9.7 9.7 0 0 0 1.11-.96l.73-.39.86.5v.35a8.88 8.88 0 0 0-.52 2.17 7.73 7.73 0 0 0 .35 3.67l.1.06-.04.09Z"/>
  </g>
</svg>

<?xml version="1.0" encoding="UTF-8" standalone="no"?>
<!-- Created with Inkscape (http://www.inkscape.org/) -->

<svg
   width="4.814mm"
   height="12.596mm"
   viewBox="0 0 4.814 12.596"
   version="1.1"
   id="svg1"
   xmlns="http://www.w3.org/2000/svg"
   xmlns:svg="http://www.w3.org/2000/svg">
  <defs
     id="defs1" />
  <g
     id="layer1"
     transform="translate(-104.34,-178.54)">
    <g
       stroke="black"
       id="g2"
       transform="matrix(-0.13289,-0.22878,0.22878,-0.13289,107.07,191.36)">
      <path
         fill="#a05a2c"
         stroke-width="0.2"
         d="M 40.28,26.94 1.78,4.71 C 1.68,4.67 1.58,4.63 1.48,4.57 0.23,3.85 -0.26,2.34 0.4,1.21 1.04,0.09 2.59,-0.24 3.84,0.48 L 4.07,0.63 42.62,22.88 Z"
         id="path1" />
      <path
         stroke-width="0.23"
         d="M 43.74,20.07 43.7,20.04 37.51,30.76 31.03,27.02 37.26,16.24 37.25,16.23 37.26,16.22 37.29,16.19 37.31,16.2 37.51,16.1 A 7.34,7.34 0 0 0 41.13,14.53 9.7,9.7 0 0 0 42.24,13.57 L 42.97,13.18 43.83,13.68 V 14.03 A 8.88,8.88 0 0 0 43.31,16.2 7.73,7.73 0 0 0 43.66,19.87 L 43.76,19.93 43.72,20.02 Z"
         id="path2" />
    </g>
  </g>
</svg>
